src/svg/viber.svg

<svg width="20" height="20" viewBox="0 0 20 20" fill="none" xmlns="http://www.w3.org/2000/svg">
<g clip-path="url(#clip0_101_124)">
<path d="M9.49876 0.00325355C7.89376 0.0226285 4.44313 0.286379 2.51313 2.057C1.07751 3.4795 0.576256 5.58263 0.517506 8.18325C0.468756 10.7745 0.410006 15.6408 5.10063 16.9658V18.9839C5.10063 18.9839 5.07126 19.7914 5.60501 19.957C6.26251 20.1651 6.63688 19.5439 7.26188 18.8764L8.42751 17.5583C11.6369 17.8251 14.095 17.2101 14.3781 17.1189C15.0294 16.9108 18.6975 16.442 19.2969 11.5751C19.9119 6.54888 18.9975 3.382 17.3469 1.9495H17.3369C16.8388 1.49075 14.8369 0.0320035 10.3644 0.0157535C10.3644 0.0157535 10.0325 -0.00674645 9.49876 0.00262855V0.00325355ZM9.55376 1.41638C10.0094 1.41325 10.2863 1.43263 10.2863 1.43263C14.0719 1.44263 15.8788 2.582 16.305 2.96575C17.695 4.157 18.4113 7.012 17.8869 11.2083C17.3888 15.277 14.4138 15.5345 13.8631 15.7101C13.6288 15.7851 11.4638 16.3189 8.73626 16.1433C8.73626 16.1433 6.70501 18.5945 6.07001 19.2258C5.96938 19.3364 5.85188 19.3689 5.77688 19.3526C5.66938 19.3264 5.63688 19.1933 5.64313 19.0108L5.66251 15.6614C1.68438 14.5614 1.91876 10.4108 1.96126 8.24263C2.01001 6.0745 2.41688 4.30075 3.62813 3.0995C5.25876 1.62513 8.18876 1.42638 9.55251 1.41638H9.55376ZM9.85376 3.58388C9.82101 3.58355 9.78853 3.5897 9.75818 3.60198C9.72783 3.61427 9.70021 3.63244 9.67691 3.65544C9.65361 3.67845 9.6351 3.70584 9.62243 3.73604C9.60977 3.76623 9.60321 3.79864 9.60313 3.83138C9.60313 3.97138 9.71688 4.082 9.85376 4.082C10.4734 4.07022 11.0893 4.18123 11.6659 4.40864C12.2425 4.63606 12.7683 4.97537 13.2131 5.407C14.1213 6.28888 14.5638 7.47388 14.5806 9.02325C14.5806 9.16013 14.6913 9.27388 14.8313 9.27388V9.26388C14.8972 9.26405 14.9606 9.23812 15.0076 9.19176C15.0545 9.1454 15.0812 9.08236 15.0819 9.01638C15.1122 8.2871 14.994 7.55926 14.7343 6.87711C14.4746 6.19495 14.0789 5.57273 13.5713 5.04825C12.5819 4.08138 11.3281 3.58325 9.85376 3.58325V3.58388ZM6.55938 4.157C6.38247 4.13115 6.20205 4.16667 6.04813 4.25763H6.03501C5.67767 4.46709 5.35576 4.73183 5.08126 5.042C4.85313 5.30575 4.72938 5.57263 4.69688 5.8295C4.67751 5.98263 4.69063 6.13575 4.73626 6.282L4.75251 6.292C5.00938 7.047 5.34501 7.77325 5.75501 8.457C6.28314 9.4176 6.9331 10.306 7.68876 11.1001L7.71126 11.1326L7.74688 11.1589L7.76938 11.1851L7.79563 11.2076C8.59265 11.9655 9.48319 12.6185 10.4456 13.1508C11.5456 13.7495 12.2131 14.0326 12.6138 14.1501V14.1564C12.7313 14.192 12.8381 14.2083 12.9456 14.2083C13.2871 14.1832 13.6103 14.0446 13.8638 13.8145C14.1725 13.5399 14.4343 13.2167 14.6388 12.8576V12.8514C14.8306 12.4901 14.7656 12.1483 14.4888 11.917C13.9343 11.4323 13.3347 11.0018 12.6981 10.6314C12.2719 10.4001 11.8388 10.5401 11.6631 10.7745L11.2888 11.2464C11.0969 11.4808 10.7481 11.4483 10.7481 11.4483L10.7381 11.4545C8.13751 10.7901 7.44376 8.157 7.44376 8.157C7.44376 8.157 7.41126 7.79888 7.65188 7.61638L8.12063 7.23888C8.34501 7.05638 8.50126 6.62388 8.26063 6.197C7.89276 5.5596 7.4632 4.95985 6.97813 4.40638C6.87209 4.2759 6.72332 4.18712 6.55813 4.15575L6.55938 4.157ZM10.2863 4.8995C9.95438 4.8995 9.95438 5.40075 10.2894 5.40075C10.7021 5.40745 11.1094 5.4954 11.488 5.65959C11.8667 5.82377 12.2093 6.06097 12.4963 6.35763C12.758 6.64638 12.9592 6.98474 13.0878 7.35265C13.2164 7.72057 13.2699 8.11055 13.245 8.4995C13.2461 8.56533 13.273 8.62809 13.3199 8.67435C13.3667 8.72061 13.4298 8.74669 13.4956 8.747L13.5056 8.76013C13.5719 8.75964 13.6354 8.73308 13.6823 8.68618C13.7292 8.63929 13.7558 8.57582 13.7563 8.5095C13.7788 7.51638 13.47 6.68325 12.8644 6.01575C12.2556 5.34825 11.4063 4.97388 10.3219 4.8995H10.2863ZM10.6969 6.247C10.355 6.237 10.3419 6.74825 10.6806 6.75825C11.5044 6.80075 11.9044 7.217 11.9569 8.07325C11.958 8.13825 11.9846 8.20022 12.0308 8.24589C12.0771 8.29156 12.1394 8.31731 12.2044 8.31763H12.2144C12.2478 8.3162 12.2806 8.30812 12.3109 8.29387C12.3411 8.27963 12.3683 8.25949 12.3907 8.23465C12.4131 8.20981 12.4303 8.18075 12.4413 8.14918C12.4524 8.1176 12.457 8.08414 12.455 8.05075C12.3963 6.9345 11.7875 6.30575 10.7069 6.24763H10.6969V6.247Z" fill="white"/>
</g>
<defs>
<clipPath id="clip0_101_124">
<rect width="20" height="20" fill="white"/>
</clipPath>
</defs>
</svg>

<svg width="20" height="20" fill="none" xmlns="http://www.w3.org/2000/svg"><g clip-path="url(#a)"><path d="M9.499.003c-1.605.02-5.056.283-6.986 2.054C1.078 3.479.576 5.583.518 8.183.468 10.774.41 15.641 5.1 16.966v2.018s-.03.807.504.973c.658.208 1.032-.413 1.657-1.08l1.166-1.319c3.209.267 5.667-.348 5.95-.44.651-.207 4.32-.676 4.919-5.543.615-5.026-.3-8.193-1.95-9.625h-.01c-.498-.46-2.5-1.918-6.973-1.934 0 0-.332-.023-.865-.013Zm.055 1.413c.455-.003.732.017.732.017 3.786.01 5.593 1.149 6.019 1.533 1.39 1.191 2.106 4.046 1.582 8.242-.498 4.069-3.473 4.326-4.024 4.502-.234.075-2.4.609-5.127.433 0 0-2.031 2.451-2.666 3.083-.1.11-.218.143-.293.127-.108-.027-.14-.16-.134-.342l.02-3.35c-3.979-1.1-3.744-5.25-3.702-7.418.049-2.169.456-3.942 1.667-5.144 1.63-1.474 4.56-1.673 5.925-1.683Zm.3 2.168a.248.248 0 0 0-.25.247c0 .14.113.251.25.251a4.696 4.696 0 0 1 3.36 1.325c.907.882 1.35 2.067 1.367 3.616 0 .137.11.25.25.25v-.01a.25.25 0 0 0 .25-.247 5.384 5.384 0 0 0-1.51-3.968c-.99-.967-2.243-1.465-3.717-1.465Zm-3.295.573a.783.783 0 0 0-.51.1h-.014c-.357.21-.68.475-.954.785-.228.264-.352.53-.384.788-.02.153-.006.306.04.452l.016.01c.256.755.592 1.481 1.002 2.165.528.96 1.178 1.849 1.934 2.643l.022.033.036.026.022.026.027.023a12.92 12.92 0 0 0 2.65 1.943c1.1.598 1.767.882 2.168 1v.005c.117.036.224.052.332.052.341-.025.664-.163.918-.393.308-.275.57-.598.775-.957v-.007c.192-.36.127-.703-.15-.934a11.536 11.536 0 0 0-1.79-1.286c-.427-.23-.86-.09-1.036.143l-.374.472c-.192.235-.54.202-.54.202l-.01.006c-2.601-.664-3.295-3.297-3.295-3.297s-.033-.358.208-.54l.469-.378c.224-.183.38-.615.14-1.042a11.245 11.245 0 0 0-1.283-1.79.713.713 0 0 0-.42-.251l.001.001Zm3.727.742c-.332 0-.332.502.003.502a3.14 3.14 0 0 1 2.207.957 2.913 2.913 0 0 1 .749 2.141.251.251 0 0 0 .25.248l.01.013a.253.253 0 0 0 .251-.25c.023-.994-.286-1.827-.892-2.494-.608-.668-1.458-1.042-2.542-1.117h-.036Zm.41 1.348c-.341-.01-.354.501-.015.511.823.043 1.223.459 1.276 1.315a.249.249 0 0 0 .247.245h.01a.252.252 0 0 0 .241-.267c-.059-1.117-.668-1.745-1.748-1.803h-.01v-.001Z" fill="#fff"/></g><defs><clipPath id="a"><path fill="#fff" d="M0 0h20v20H0z"/></clipPath></defs></svg>
